X:1
T:Title
%%score 1 { ( 2 4 ) | ( 3 5 ) }
L:1/8
Q:1/4=110
M:4/4
K:F
V:1 treble nm="Grand Piano, Unnamed-000"
V:2 treble nm="Choir Pad, Toulon, 10.10.10.10"
V:4 treble 
V:3 bass 
V:5 bass 
V:1
 [CF]4 [EG]2 [FA]2 | [FB]4 [FA]4 | [EG]2 [DF]2 [DF]2 [CE]2 | [CF]8 | [FA]4 [FB]2 [Fc]2 | %5
w: By~Genevan~Psalter,~1551 * *|||||
 [Fd]4 [Fc]4 | [EB]2 [FA]2 [DG]2 [DF]2 | [EG]8 | [Cc]4 [Cc]2 [EB]2 | [FA]4 G4 | %10
w: |||||
 [FA]2 [Gc]2 [Gc]2 [G=B]2 | [Ec]8 | [FA]4 [EG]2 [DF]2 | [^CE]2 [DF]2 [DG]2 [GB]2 | [FA]4 [EG]4 | %15
w: |||||
 F8 |] %16
w: |
V:2
 A,4 C2 C2 | D4 C4 | C2[K:bass] A,2 B,2 G,2 | A,8 | C4 B,2 A,2 | B,4 A,4 | B,2 C2 B,2 A,2 | C8 | %8
 F,4 F,2 G,2 | A,4[K:treble] C4 | C2 C2 D2 D2 | C8 | z2 C2 C2 A,2 | A,2 A,2 B,2 D2 | C6 z2 | A,8 |] %16
V:3
 F,4 C,2 F,2 | B,,4 F,4 | C,2 D,2 B,,2 C,2 | F,,8 | F,4 D,2 C,2 | B,,4 F,4 | G,2 F,2 B,,2 D,2 | %7
 C,8 | A,,4 A,,2 C,2 | F,4 E,4 | F,2 E,2 G,2 G,,2 | C,8 | z4 C,2 D,2 | A,,2 D,2 B,,2 G,,2 | %14
 C,4 z2 B,2 | F,,8 |] %16
V:4
 x8 | x8 | x2[K:bass] x6 | x8 | x8 | x8 | x8 | x8 | x8 | x4[K:treble] x4 | x8 | x8 | F,4 z4 | x8 | %14
 x8 | x8 |] %16
V:5
 x8 | x8 | x8 | x8 | x8 | x8 | x8 | x8 | x8 | x8 | x8 | x8 | x8 | x8 | z4 C,4 | x8 |] %16

